docs/.gitbook/assets/icon-livestream-01-16@dark.svg

<svg width="32" height="32" viewBox="0 0 16 16" fill="none" xmlns="http://www.w3.org/2000/svg">
<rect x="0" y="0" width="16" height="16" fill="#181c1f"/>
<path fill-rule="evenodd" clip-rule="evenodd" d="M2.85881 3.26941C3.15737 2.98229 3.63215 2.99157 3.91927 3.29013C4.20638 3.58869 4.1971 4.06347 3.89855 4.35059C1.79913 6.36952 1.76571 9.60953 3.79507 11.6672C4.08593 11.9622 4.08263 12.437 3.78772 12.7279C3.4928 13.0187 3.01794 13.0154 2.72708 12.7205C0.11139 10.0683 0.15637 5.86825 2.85881 3.26941ZM4.97531 5.27409C5.27128 4.98431 5.74613 4.98933 6.03591 5.28531C6.32569 5.58128 6.32066 6.05613 6.02469 6.34591C5.08436 7.26656 5.05721 8.7356 5.94045 9.68756C6.22217 9.99121 6.2044 10.4658 5.90075 10.7475C5.5971 11.0292 5.12256 11.0114 4.84084 10.7078C3.4066 9.16195 3.45236 6.76516 4.97531 5.27409ZM12.0807 3.29013C12.3678 2.99157 12.8426 2.98229 13.1412 3.26941C15.8436 5.86825 15.8886 10.0683 13.2729 12.7205C12.9821 13.0154 12.5072 13.0187 12.2123 12.7279C11.9174 12.437 11.9141 11.9622 12.2049 11.6672C14.2343 9.60953 14.2009 6.36952 12.1014 4.35059C11.8029 4.06347 11.7936 3.58869 12.0807 3.29013ZM9.96409 5.28531C10.2539 4.98933 10.7287 4.98431 11.0247 5.27409C12.5476 6.76516 12.5934 9.16195 11.1592 10.7078C10.8774 11.0114 10.4029 11.0292 10.0992 10.7475C9.79559 10.4658 9.77782 9.99121 10.0595 9.68756C10.9428 8.7356 10.9156 7.26656 9.9753 6.34591C9.67933 6.05613 9.67431 5.58128 9.96409 5.28531ZM7 7.81C7 7.25771 7.44771 6.81 8 6.81C8.55228 6.81 9 7.25771 9 7.81C9 8.36228 8.55228 8.81 8 8.81C7.44771 8.81 7 8.36228 7 7.81Z" fill="#fff"/>
</svg>

<svg xmlns="http://www.w3.org/2000/svg" width="32" height="32" fill="none" viewBox="0 0 16 16"><path fill="#181c1f" d="M0 0h16v16H0z"/><path fill="#fff" fill-rule="evenodd" d="M2.859 3.27a.75.75 0 1 1 1.04 1.08c-2.1 2.02-2.133 5.26-.104 7.317a.75.75 0 0 1-1.068 1.053 6.597 6.597 0 0 1 .132-9.45m2.116 2.004a.75.75 0 1 1 1.05 1.072c-.94.92-.968 2.39-.085 3.342a.75.75 0 0 1-1.1 1.02 3.884 3.884 0 0 1 .135-5.434m7.106-1.984a.75.75 0 0 1 1.06-.02 6.597 6.597 0 0 1 .132 9.45.75.75 0 0 1-1.068-1.053C14.235 9.61 14.2 6.37 12.1 4.351a.75.75 0 0 1-.02-1.06M9.964 5.285a.75.75 0 0 1 1.06-.01 3.884 3.884 0 0 1 .135 5.433.75.75 0 0 1-1.1-1.02 2.384 2.384 0 0 0-.084-3.342.75.75 0 0 1-.01-1.06M7 7.81a1 1 0 1 1 2 0 1 1 0 0 1-2 0" clip-rule="evenodd"/></svg>
